tracks/ballerina.svg

<svg width="96" height="96" viewBox="0 0 96 96" fill="none" xmlns="http://www.w3.org/2000/svg">
<path d="M44 2.30935C46.4752 0.880283 49.5248 0.880284 52 2.30935L85.5692 21.6905C88.0444 23.1196 89.5692 25.7606 89.5692 28.6187V67.3811C89.5692 70.2393 88.0444 72.8803 85.5692 74.3093L52 93.6905C49.5248 95.1196 46.4752 95.1196 44 93.6905L10.4308 74.3093C7.95557 72.8803 6.43078 70.2393 6.43078 67.3811V28.6187C6.43078 25.7606 7.95557 23.1196 10.4308 21.6905L44 2.30935Z" fill="white"/>
<path fill-rule="evenodd" clip-rule="evenodd" d="M84.1907 22.9024L51.5701 4.06896C49.3322 2.77689 46.575 2.77689 44.337 4.06896L11.7165 22.9024C9.47853 24.1945 8.09991 26.5824 8.09991 29.1665V66.8335C8.09991 69.4176 9.47853 71.8055 11.7165 73.0975L44.337 91.931C46.575 93.2231 49.3322 93.2231 51.5701 91.931L84.1907 73.0975C86.4286 71.8055 87.8072 69.4176 87.8072 66.8335V29.1665C87.8072 26.5824 86.4286 24.1945 84.1907 22.9024ZM53.1201 1.38436C49.923 -0.461454 45.9841 -0.461455 42.7871 1.38436L10.1665 20.2178C6.96946 22.0637 5 25.4749 5 29.1665V66.8335C5 70.5251 6.96946 73.9363 10.1665 75.7821L42.7871 94.6156C45.9841 96.4614 49.923 96.4614 53.1201 94.6156L85.7406 75.7821C88.9377 73.9363 90.9071 70.5251 90.9071 66.8335V29.1665C90.9071 25.4749 88.9377 22.0637 85.7406 20.2178L53.1201 1.38436Z" fill="#51C2C0"/>
<path d="M34.5 37.4673V24H45.7965V41.809L34.5 37.4673Z" fill="#51C2C0"/>
<path d="M34.5 41.6885L42.2186 44.6633L34.5 47.598V41.6885Z" fill="#51C2C0"/>
<path d="M45.7965 47.5176V54.0301L40.2889 72H34.5V51.8191L45.7965 47.5176Z" fill="#51C2C0"/>
<path d="M60.9925 37.4673V24H49.696V41.809L60.9925 37.4673Z" fill="#51C2C0"/>
<path d="M60.9926 41.6885L53.2338 44.6633L60.9926 47.598V41.6885Z" fill="#51C2C0"/>
<path d="M49.6961 47.5176V54.0301L55.1634 72H60.9926V51.8191L49.6961 47.5176Z" fill="#51C2C0"/>
</svg>

<svg width="96" height="96" fill="none" xmlns="http://www.w3.org/2000/svg">
  <path d="M44 2.3093a8 8 0 018 0l33.5692 19.3812a8 8 0 014 6.9282v38.7624a7.9998 7.9998 0 01-4 6.9282L52 93.6905a7.9998 7.9998 0 01-8 0L10.4308 74.3093a7.9998 7.9998 0 01-4-6.9282V28.6187a8 8 0 014-6.9282L44 2.3093z" fill="#fff"/>
  <path fill-rule="evenodd" clip-rule="evenodd" d="M84.1907 22.9024L51.5701 4.069a7.233 7.233 0 00-7.2331 0L11.7165 22.9024a7.2332 7.2332 0 00-3.6166 6.2641v37.667a7.233 7.233 0 003.6166 6.264L44.337 91.931a7.233 7.233 0 007.2331 0l32.6206-18.8335a7.233 7.233 0 003.6165-6.264v-37.667a7.2333 7.2333 0 00-3.6165-6.2641zM53.1201 1.3844a10.333 10.333 0 00-10.333 0L10.1665 20.2178A10.3332 10.3332 0 005 29.1665v37.667a10.333 10.333 0 005.1665 8.9486l32.6206 18.8335a10.333 10.333 0 0010.333 0l32.6205-18.8335a10.333 10.333 0 005.1666-8.9486v-37.667a10.3332 10.3332 0 00-5.1666-8.9487L53.1201 1.3844z" fill="#51C2C0"/>
  <path d="M34.5 37.4673V24h11.2965v17.809L34.5 37.4673zM34.5 41.6885l7.7186 2.9748L34.5 47.598v-5.9095zM45.7965 47.5176v6.5125L40.2889 72H34.5V51.8191l11.2965-4.3015zM60.9925 37.4673V24H49.696v17.809l11.2965-4.3417zM60.9926 41.6885l-7.7588 2.9748 7.7588 2.9347v-5.9095zM49.6961 47.5176v6.5125L55.1634 72h5.8292V51.8191l-11.2965-4.3015z" fill="#51C2C0"/>
</svg>
